img/a/aero.zip.svg

<?xml version="1.0" encoding="UTF-8"?>

<svg
	viewBox="-5 -15 110 110"
	width="100%"
	height="100%"
	xmlns="http://www.w3.org/2000/svg">
	<path
		d="m 77.785175,41.999749 c 1.6562,0 3,1.3438 3,3 0,1.6562 -1.3438,3 -3,3 -1.6562,0 -3,-1.3438 -3,-3 0,-1.6562 1.3438,-3 3,-3 z m -12,0 c 1.6562,0 3,1.3438 3,3 0,1.6562 -1.3438,3 -3,3 -1.6562,0 -3,-1.3438 -3,-3 0,-1.6562 1.3438,-3 3,-3 z m 30.699,4.0078 -6.2188,-9.3281 c -2.7773,-4.1758 -7.4648,-6.6836 -12.48,-6.6797 h -7.7266 l -27.434,-28.4179997 c -2.832,-2.9219 -6.7227,-4.5742 -10.793,-4.582 h -9.8984 c -1.6562,-0.00391 -3.0039,1.3398 -3.0039,2.99609996 0,0.59375 0.17578,1.17580004 0.50391,1.66800004 l 18.891,28.3359997 h -2.3945 c -3.0117,0.0039 -5.8203,-1.5039 -7.4883,-4.0078 l -10.438,-15.656 c -0.55859,-0.8359397 -1.4961,-1.3358997 -2.5,-1.3358997 h -10.5 c -1.6562,0 -3,1.3437997 -3,2.9999997 v 21 c 0.015625,14.906 12.094,26.984 27,27 h 9.3203 l -18.891,28.336 c -0.91797,1.3789 -0.54688,3.2422 0.83203,4.1602 0.49219,0.32812 1.0703,0.50391 1.6641,0.50391 h 9.8984 c 4.0664,-0.0078 7.9609,-1.6602 10.793,-4.582 l 27.438,-28.418 h 18.938 c 4.9727,0 9,-4.0312 9,-9 0,-1.7773 -0.52344,-3.5156 -1.5117,-4.9922 z m -68.949,-43.0079997 h 4.3008 c 2.4414,0.00391 4.7773,0.99609 6.4766,2.75 l 23.406,24.2499997 h -16.184 z m -19.531,11.9999997 h 5.8984 l 9.5469,14.32 c 0.15625,0.23047 0.31641,0.46094 0.48047,0.67969 h -15.926 z m 83.637,37.414 c -0.51172,0.98438 -1.5352,1.5977 -2.6445,1.5859 h -20.211 c -0.8125,0 -1.5938,0.33203 -2.1562,0.91406 l -28.32,29.336 c -1.6992,1.7539 -4.0352,2.7422 -6.4766,2.75 h -4.3008 l 18.891,-28.336 c 0.91797,-1.3789 0.54688,-3.2422 -0.83203,-4.1602 -0.48828,-0.32812 -1.0703,-0.50391 -1.6602,-0.50391 h -14.926 c -10.434,-0.01563 -19.277,-7.6758 -20.781,-18 h 69.562 c 3.0117,-0.0039 5.8203,1.5 7.4883,4.0078 l 6.2188,9.3281 c 0.62891,0.91797 0.6875,2.1094 0.14844,3.0781 z"
		fill="currentColor" />

	<style>
		svg {
			path {
				fill: #3f3f46;

				@media (prefers-color-scheme: light) {
					fill: #3f3f46;
				}

				@media (prefers-color-scheme: dark) {
					fill: #6fd753;
				}
			}
		}
	</style>

</svg>

<svg xmlns="http://www.w3.org/2000/svg" viewBox="-5 -15 110 110"><path fill="#3f3f46" d="M77.785 42A3 3 0 1 1 77.783 48 3 3 0 0 1 77.785 42m-12 0A3 3 0 1 1 65.783 48 3 3 0 0 1 65.785 42m30.7 4.008-6.22-9.329A14.98 14.98 0 0 0 77.785 30H70.06L42.625 1.583A15.07 15.07 0 0 0 31.832-3h-9.899a2.998 2.998 0 0 0-2.5 4.664L38.324 30H35.93a8.99 8.99 0 0 1-7.488-4.008L18.004 10.336A3 3 0 0 0 15.504 9h-10.5a3 3 0 0 0-3 3v21c.015 14.906 12.094 26.984 27 27h9.32L19.433 88.336A3 3 0 0 0 21.929 93h9.898a15.08 15.08 0 0 0 10.793-4.582L70.058 60h18.938a9 9 0 0 0 7.489-13.992zM27.534 3h4.301a9.04 9.04 0 0 1 6.477 2.75L61.719 30H45.535zM8.005 15h5.898l9.546 14.32c.157.23.317.46.48.68H8.005zM91.64 52.414a2.95 2.95 0 0 1-2.644 1.585H68.786c-.813 0-1.594.332-2.157.915L38.31 84.25A9.05 9.05 0 0 1 31.833 87h-4.3l18.89-28.336a3 3 0 0 0-2.492-4.665H29.005C18.57 53.984 9.728 46.324 8.224 36h69.562a8.98 8.98 0 0 1 7.488 4.008l6.219 9.328c.629.918.687 2.11.148 3.078z"/></svg>
